X:1
T:Mrs Capt Charles Gordon, Huntly
T:Mrs Capt Charles Gordon, Huntly
T:William Marshall
C:William Marshall
%%score ( 1 2 ) ( 3 4 )
L:1/8
M:4/4
K:A
V:1 treble 
V:2 treble 
V:3 treble 
V:4 treble 
V:1
 (e/f/4g/4) | a2 a>e f/b/a/g/ (a>e) | f<b b>a g<e e{g}f/g/ | a2 (ae) (f/e/)d/c/ (d/c/)B/A/ | %4
 F/B/G/B/ (A/f/)[Be]/d/ c<A A(e/f/4g/4) | a2 a>e f/b/a/g/ (a>e) | f<b b>a g<e e{g}f/g/ | %7
 a2 (ae) (f/e/)d/c/ (d/c/)B/A/ | F/B/G/B/ (A/f/)[Be]/d/ c<A A || f/g/ | aAcA eAcA | %11
 (B/d/)c/e/ (d/c/)B/A/ B<F F(f/g/) | aAcA eAcA | f/g/a/f/ g/b/a/g/ aA Af/g/ | aecA ecAC | %15
 D>F E<C B,B Bb/g/ | f>b (a/g/)f/e/ f/e/f/g/ a>A | F/B/G/B/ A/f/[Be]/d/ c<A A |] %18
V:2
 x | [A,CEA]2 [A,CEA]2 [DFA]2 x2 | ^d2 d2 x4 | x8 | x8 | [A,CEA]2 [A,CEA]2 [DFA]2 x2 | ^d2 d2 x4 | %7
 x8 | x7 || x | x8 | E2 E2 x4 | x8 | x2 e2 x4 | x8 | x8 | x4 A2 A2 | x7 |] %18
V:3
 z | z6 [A,CEA]2 | [DFA]2 [B,FB]2 [EGB]2 [EGB]2 | [CEA]2 [CEA]2 [DFA]2 FD | %4
 [D,,D,][E,,D,] [F,,C,][G,,E,] [A,,C,E,]2 [A,,C,E,] z | z6 [A,CEA]2 | %6
 [DFA]2 [B,FB]2 [EGB]2 [EGB]2 | [CEA]2 [CEA]2 [DFA]2 FD | %8
 [D,,D,][E,,D,] [F,,C,][G,,E,] [A,,C,E,]2 [A,,C,E,] || z | %10
 [A,,E,A,]2 [A,,E,A,]2 [A,,E,A,]2 [A,,E,A,]2 | [G,,G,][A,,A,] [B,,B,][C,C] [D,D]2 [D,D]2 | %12
 [C,C]2 [A,,A,]2 [A,,A,]2 [A,,A,]2 | [D,D][B,,B,] [E,B,D][E,B,D] [A,CE]2 [A,CE]2 | %14
 [A,CE]2 [A,CE]2 [A,,A,]2 [A,,A,]2 | [D,,D,]2 [A,,,A,,]2 [E,,E,]2 [E,,E,]2 | %16
 [E,B,]2 [A,CE]2 [A,D]2 [A,C]2 | [D,D][E,D] [F,C][G,E] [A,CE]2 [A,CE] |] %18
V:4
 x | x8 | x8 | x6 A,2 | x8 | x8 | x8 | x6 A,2 | x7 || x | x8 | x8 | x8 | x8 | x8 | x8 | x8 | x7 |] %18

